!!!COA: des Prez, Josquin
!!!CDT: ~1450-1521/08/27
!!!OTL: Misericordias domini
!!!AGN: Motet
!!!SCT: NJE 18.4
!!!SCA: New Josquin Edition 18.4
!!!voices: 4
**kern	**kern	**kern	**kern
*part4	*part3	*part2	*part1
*staff4	*staff3	*staff2	*staff1
*Ivox	*Ivox	*Ivox	*Ivox
*I"Bassus	*I"Tenor	*I"Altus	*I"Superius
*I'B	*I'T	*I'A	*I'S
*>[A,B,C]	*>[A,B,C]	*>[A,B,C]	*>[A,B,C]
*>A	*>A	*>A	*>A
*clefF4	*clefGv2	*clefGv2	*clefG2
*k[]	*k[]	*k[]	*k[]
*M2/1	*M2/1	*M2/1	*M2/1
*met(C|)	*met(C|)	*met(C|)	*met(C|)
!!section: Prima pars: Misericordias domini
=1	=1	=1	=1
0r	1r	0r	1.d
.	[1D	.	.
.	.	.	2d
=2	=2	=2	=2
0r	2D]	0r	1d
.	2D	.	.
.	1D	.	[1a
=3	=3	=3	=3
0r	0A	0r	1a]
.	.	.	1a
=4	=4	=4	=4
0r	1A	0r	0a
.	[1A	.	.
=5	=5	=5	=5
1r	1A]	1.A	1r
[1AA	1r	.	1cc
.	.	2A	.
=6	=6	=6	=6
2AA]	1.E	1A	2cc
2AA	.	.	1cc
1AA	.	[1e	.
.	2E	.	4b
.	.	.	4a
=7	=7	=7	=7
0E	1E	1e]	1g
.	[1B	1e	2r
.	.	.	[2g
=8	=8	=8	=8
1E	1B]	1e	4g]
.	.	.	4a
.	.	.	4b
.	.	.	4cc
[1E	1B	2r	2b
.	.	[2e	2g
=9	=9	=9	=9
1E]	0B	2e]	2b
.	.	4d	1a
.	.	4c	.
1E	.	2B	.
.	.	2e	2g#Xi
=10	=10	=10	=10
1.F	1r	1c	0a
.	[1A	1f	.
4E	.	.	.
4D	.	.	.
=11	=11	=11	=11
2C	0A]	2e	0r
2.F	.	2.d	.
4E	.	4c	.
[2D	.	4B	.
.	.	4A	.
=12	=12	=12	=12
4D]	1F	2B	1d
4C	.	.	.
4BB	.	1A	.
4AA	.	.	.
1BB	1D	.	1d
.	.	2G#Xi	.
=13	=13	=13	=13
[0AA	[0E	0A	0c
=14	=14	=14	=14
0AA]	0E]	1r	1c
.	.	[1e	1r
=15	=15	=15	=15
1r	1A	1e]	[0cc
1AA	1c	1e	.
=16	=16	=16	=16
1C	2A	[0e	1cc]
.	2.c	.	.
2AA	.	.	1cc
.	4B	.	.
[2C	4A	.	.
.	4G	.	.
=17	=17	=17	=17
4C]	2A	1.e]	1.cc
4BB	.	.	.
4AA	1G	.	.
4GG	.	.	.
1AA	.	.	.
.	2F#Xi	4d	4b
.	.	4c	4a
=18	=18	=18	=18
[0GG	[0G	[0d	[0b
=19	=19	=19	=19
0GG]	0G]	0d]	0b]
=20	=20	=20	=20
1r	[0D	1d	0a
1D	.	1f	.
=21	=21	=21	=21
1F	0D]	2d	1r
.	.	2.f	.
2D	.	.	[1f
.	.	4e	.
[2F	.	4d	.
.	.	4c	.
=22	=22	=22	=22
4F]	0F	2d	2f]
4E	.	.	.
4D	.	1c	2f
4C	.	.	.
1D	.	.	1f
.	.	2B	.
=23	=23	=23	=23
[0C	[0G	[0c	[0e
=24	=24	=24	=24
0C]	0G]	0c_	0e]
=25	=25	=25	=25
1r	[0C	0c]	1e
1E	.	.	1g
=26	=26	=26	=26
1G	0C]	1r	2e
.	.	.	2.g
2E	.	1G	.
.	.	.	4f
[2G	.	.	4e
.	.	.	4d
=27	=27	=27	=27
4G]	0G	2.E	2e
4F	.	.	.
4E	.	.	1d
4D	.	4F	.
1E	.	1G	.
.	.	.	2c#Xi
=28	=28	=28	=28
0D	0F	0A	[0d
=29	=29	=29	=29
[0GG	[0G	1r	0d]
.	.	1B	.
=30	=30	=30	=30
0GG_	0G_	1d	1b
.	.	2B	1dd
.	.	[2d	.
=31	=31	=31	=31
0GG_	0G]	4d]	2b
.	.	4c	.
.	.	4B	2.dd
.	.	4A	.
.	.	1B	.
.	.	.	4cc
.	.	.	4b
.	.	.	4a
=32	=32	=32	=32
0GG]	1r	2r	1b
.	.	2d	.
.	1E	2B	2r
.	.	[2e	2cc
=33	=33	=33	=33
0r	1E	2e]	2b
.	.	4d	1a
.	.	4c	.
.	1E	1B	.
.	.	.	2g#Xi
=34	=34	=34	=34
1r	0F	2.A	[0a
.	.	4B	.
1AA	.	2c	.
.	.	[2d	.
=35	=35	=35	=35
1AA	0E	2d]	1a]
.	.	4c#Xi	.
.	.	4B	.
1AA	.	1c#Xi	1a
=36	=36	=36	=36
0BB-Xi	2.D	0d	1.f
.	4E	.	.
.	2F	.	.
.	[2G	.	4e
.	.	.	4d
=37	=37	=37	=37
1AA	2G]	1.c	1a
.	4F#Xi	.	.
.	4E	.	.
1AA	1F#Xi	.	1a
.	.	4B	.
.	.	4A	.
=38	=38	=38	=38
1.GG	0G	[0d	1r
.	.	.	1b
2GG	.	.	.
=39	=39	=39	=39
0GG	0G	0d]	1b
.	.	.	1b
=40	=40	=40	=40
0r	0A	1r	0cc
.	.	1e	.
=41	=41	=41	=41
0r	0E	1e	0b
.	.	1e	.
=42	=42	=42	=42
0r	1r	0f	2.a
.	.	.	4b
.	1A	.	2cc
.	.	.	[2dd
=43	=43	=43	=43
0r	1A	0e	2dd]
.	.	.	4cc#Xi
.	.	.	4b
.	1A	.	1cc#Xi
=44	=44	=44	=44
1r	0B	2.d	1dd
.	.	4e	.
1D	.	2f	[1dd
.	.	[2g	.
=45	=45	=45	=45
1D	0A	2g]	2dd]
.	.	4f#Xi	2dd
.	.	4e	.
1D	.	1f#Xi	1dd
=46	=46	=46	=46
0E	2.G	1g	1.b
.	4A	.	.
.	2B	2r	.
.	[2c	[2G	4a
.	.	.	4g
=47	=47	=47	=47
0D	2c]	2G]	1dd
.	4B	2E	.
.	4A	.	.
.	1B	1F	1dd
=48	=48	=48	=48
0C	0c	1.E	0g
.	.	2F	.
=49	=49	=49	=49
[0GG	0B	0G	1r
.	.	.	1g
=50	=50	=50	=50
0GG]	0G	1r	2g
.	.	.	2g
.	.	1B	2g
.	.	.	2g
=51	=51	=51	=51
0r	0r	1c	4e
.	.	.	4f
.	.	.	4g
.	.	.	4a
.	.	2B	4b
.	.	.	4a
.	.	[2c	4g
.	.	.	4f
=52	=52	=52	=52
0r	1r	2c]	2e
.	.	4B	1a
.	.	4A	.
.	1E	2B	.
.	.	2B	2g#Xi
=53	=53	=53	=53
0r	1F	4A	1a
.	.	4B	.
.	.	4c	.
.	.	4d	.
.	2E	4e	1r
.	.	4d	.
.	[2F	4c	.
.	.	4B	.
=54	=54	=54	=54
1r	2F]	2A	0r
.	4E	1d	.
.	4D	.	.
1AA	2E	.	.
.	2E	2c#Xi	.
=55	=55	=55	=55
1BB-Xi	4D	1d	0r
.	4E	.	.
.	4F	.	.
.	4G	.	.
2AA	4A	1r	.
.	4G	.	.
[2BB-Xi	4F	.	.
.	4E	.	.
=56	=56	=56	=56
2BB-]	2D	1r	0r
4AA	1G	.	.
4GG	.	.	.
2AA	.	1A	.
2AA	2F#Xi	.	.
=57	=57	=57	=57
1GG	1.G	1B-X	0r
2r	.	2G	.
[2G	4F	[2B-Xi	.
.	4E	.	.
=58	=58	=58	=58
2G]	0D	2B-]	1r
4F#Xi	.	4A	.
4E	.	4G	.
1F#Xi	.	1A	1a
=59	=59	=59	=59
1G	0r	4G	1b-Xi
.	.	4A	.
.	.	4B-Xi	.
.	.	4c	.
[1G	.	4d	2g
.	.	4c	.
.	.	4B-Xi	[2b-Xi
.	.	4A	.
=60	=60	=60	=60
2G]	1r	2G	2b-]
4F	.	1g	4a
4E	.	.	4g
1D	1d	.	1a
.	.	2f#Xi	.
=61	=61	=61	=61
0r	1e	1g	4g
.	.	.	4a
.	.	.	4bni
.	.	.	4cc
.	2d	1G	4dd
.	.	.	4cc
.	[2e	.	4b
.	.	.	4a
=62	=62	=62	=62
0r	2e]	1G	2g
.	4d	.	1cc
.	4c	.	.
.	1d	1G	.
.	.	.	2b
=63	=63	=63	=63
1r	[0c	1A	[0cc
1C	.	2G	.
.	.	[2A	.
=64	=64	=64	=64
1C	0c]	2A]	0cc]
.	.	4G	.
.	.	4F	.
1C	.	1E	.
=65	=65	=65	=65
1D	0r	2D	0r
.	.	2.A	.
2C	.	.	.
.	.	4G	.
[2D	.	2B	.
=66	=66	=66	=66
2D]	0r	2A	0r
4C	.	1G	.
4BB	.	.	.
1AA	.	.	.
.	.	2c	.
=67	=67	=67	=67
2GG	0r	2B	0r
2AA	.	1A	.
1BB	.	.	.
.	.	2G#Xi	.
=68	=68	=68	=68
[0AA	1r	[0A	0r
.	[1E	.	.
=69	=69	=69	=69
0AA]	2E]	0A]	1r
.	2E	.	.
.	1E	.	[1e
=70	=70	=70	=70
1r	1.A	0r	2e]
.	.	.	2e
[1AA	.	.	1e
.	2A	.	.
=71	=71	=71	=71
2AA]	0A	1r	1.a
2AA	.	.	.
1AA	.	[1A	.
.	.	.	2a
=72	=72	=72	=72
1.D	0r	2A]	0a
.	.	2A	.
.	.	1A	.
2D	.	.	.
=73	=73	=73	=73
0D	1.A	1.d	1r
.	.	.	[1a
.	2G	2d	.
=74	=74	=74	=74
1.D	2F	1d	2a]
.	2E	.	2g
.	[1D	[1d	2f
2C	.	.	2e
=75	=75	=75	=75
2BB	1D]	2d]	0d
2AA	.	2c	.
[1GG	[1G	2B	.
.	.	2A	.
=76	=76	=76	=76
1GG]	2G]	0G	1.g
.	2G	.	.
[1C	1G	.	.
.	.	.	2g
=77	=77	=77	=77
2C]	1c	1r	1g
2C	.	.	.
1C	1c	[1c	1cc
=78	=78	=78	=78
1F	0A	2c]	1cc
.	.	2c	.
1F	.	1c	[1a
=79	=79	=79	=79
0D	1.d	1f	1a]
.	.	1f	[1dd
.	2c	.	.
=80	=80	=80	=80
1.G	2B	1d	2dd]
.	2A	.	2cc
.	[1G	[1g	2b
2F	.	.	2a
=81	=81	=81	=81
2E	1G]	2g]	0g
2D	.	2f	.
[1C	[1c	2e	.
.	.	2d	.
=82	=82	=82	=82
1C]	1c]	0c	0cc
[1F	[1A	.	.
=83	=83	=83	=83
1F]	1A]	0f	0a
[1D	[1d	.	.
=84	=84	=84	=84
1D]	1d]	0d	0dd
[1G	[1B	.	.
=85	=85	=85	=85
1G]	1B]	0g	0b
[1E	[1G	.	.
=86	=86	=86	=86
1E]	1G]	0e	0g
[1C	[1c	.	.
=87	=87	=87	=87
1C]	1c]	0c	1.cc
[1F	[1A	.	.
.	.	.	2b
=88	=88	=88	=88
0F_	1A]	[0f	2a
.	.	.	2g
.	[1c	.	[1a
=89	=89	=89	=89
1F]	1c]	1f]	1a]
1G	1B	1e	1g
=90	=90	=90	=90
1D	1A	1d	1f
1E	1G	1c	[1g
=91	=91	=91	=91
0D	0A	2d	2g]
.	.	1c	4f
.	.	.	4e
.	.	.	1f
.	.	2B	.
=92	=92	=92	=92
0C	0E	[0c	0g
=93	=93	=93	=93
[0AA	1r	0c]	0e
.	2r	.	.
.	[2A	.	.
=94	=94	=94	=94
0AA_	4A]	[0A	2r
.	4G	.	.
.	2F	.	2.a
.	2E	.	.
.	.	.	4g
.	[2A	.	2f
=95	=95	=95	=95
0AA_	2A]	0A_	2e
.	4G	.	1a
.	4F	.	.
.	2E	.	.
.	[2A	.	4g
.	.	.	4f
=96	=96	=96	=96
0AA]	4A]	0A_	2e
.	4G	.	.
.	2F	.	2.a
.	2E	.	.
.	.	.	4g
.	[2A	.	4f
.	.	.	4e
=97	=97	=97	=97
0D	4A]	0A]	4f
.	4G	.	4e
.	4F	.	4d
.	4E	.	4c
.	1F	.	1d
=98	=98	=98	=98
1AA	[0E	2r	[0e
.	.	2.c	.
2r	.	.	.
.	.	4B	.
[2C	.	2A	.
=99	=99	=99	=99
4C]	0E_	2G	0e_
4BB	.	.	.
2AA	.	1c	.
2GG	.	.	.
[2C	.	4B	.
.	.	4A	.
=100	=100	=100	=100
2C]	0E]	2G	0e]
4BB	.	2.c	.
4AA	.	.	.
2GG	.	.	.
.	.	4B	.
[2C	.	4A	.
.	.	4G	.
=101	=101	=101	=101
4C]	[0E	1A	[0el
4BB	.	.	.
1AA	.	.	.
.	.	1B	.
2GG#Xi	.	.	.
=102	=102	=102	=102
[0AA	0E]	0A	0e_
=103	=103	=103	=103
0AA]	0A	0c	0e_
=104	=104	=104	=104
0E	[0Gl	[0Bl	0e_
=105	=105	=105	=105
0EEl	0G]	0B]	0e]
!!LO:LB:i:g=z
=||	=||	=||	=||
*>B	*>B	*>B	*>B
*clefF4	*clefGv2	*clefGv2	*clefG2
*k[]	*k[]	*k[]	*k[]
*M2/1	*M2/1	*M2/1	*M2/1
*met(C|)	*met(C|)	*met(C|)	*met(C|)
!!section: Secunda pars: Quoniam est
!!!OMD: Secunda pars: Quoniam est
0r	0r	1r	1.a
.	.	[1A	.
.	.	.	2a
=106	=106	=106	=106
1.AA	1r	2A]	1a
.	.	2A	.
.	[1E	1A	1a
2AA	.	.	.
=107	=107	=107	=107
1AA	2E]	1A	1.cc
.	2E	.	.
1AA	1E	[1c	.
.	.	.	2cc
=108	=108	=108	=108
1.C	1E	2c]	1.cc
.	.	2c	.
.	[1G	[1c	.
2C	.	.	4b
.	.	.	4a
=109	=109	=109	=109
1.C	2G]	2c]	0g
.	2G	4B	.
.	.	4A	.
.	[1G	1G	.
4BB	.	.	.
4AA	.	.	.
=110	=110	=110	=110
[0GG	2G]	2r	1.b
.	4F	1d	.
.	4E	.	.
.	[1D	.	.
.	.	4c	4a
.	.	4B	4g
=111	=111	=111	=111
0GG_	1D]	1d	2.b
.	.	.	4a
.	[1G	2.B	1dd
.	.	4c	.
=112	=112	=112	=112
0GG_	1G]	2d	2.b
.	.	2e	.
.	.	.	4cc
.	1G	2d	2dd
.	.	[2g	2ee
=113	=113	=113	=113
0GG]	0G	2g]	2dd
.	.	4f	1cc
.	.	4e	.
.	.	1d	.
.	.	.	2b
=114	=114	=114	=114
[0AA	[0E	0c	[0cc
=115	=115	=115	=115
1AA]	0E_	1.A	0cc]
1AA	.	.	.
.	.	[2c	.
=116	=116	=116	=116
1.C	0E]	2c]	0r
.	.	4B	.
.	.	4A	.
.	.	2G	.
4BB	.	2A	.
4AA	.	.	.
=117	=117	=117	=117
2GG	1r	2B	0dd
2AA	.	1A	.
1BB	1D	.	.
.	.	2G#Xi	.
=118	=118	=118	=118
[0AA	0E	0A	1.cc
.	.	.	4b
.	.	.	4a
=119	=119	=119	=119
0AA]	0A	1r	0cc
.	.	1A	.
=120	=120	=120	=120
1C	1G	[0e	[0cc
2AA	[1A	.	.
[2C	.	.	.
=121	=121	=121	=121
2C]	2A]	1.e]	0cc]
2BB	1G	.	.
1AA	.	.	.
.	2F#Xi	4d	.
.	.	4c	.
=122	=122	=122	=122
[0GG	[0G	1.d	0b
.	.	[2e	.
=123	=123	=123	=123
0GG]	0G]	2e]	1r
.	.	4d	.
.	.	4c	.
.	.	1d	1b
=124	=124	=124	=124
1AA	0E	1c	1cc
2GG	.	2r	2b
[2AA	.	[2e	[2cc
=125	=125	=125	=125
4AA]	1E	4e]	4cc]
4BB	.	4d	4b
4C	.	1c	1a
4AA	.	.	.
1D	1F	.	.
.	.	2B	4g
.	.	.	4f
=126	=126	=126	=126
[0C	0G	[0c	0e
=127	=127	=127	=127
0C_	1r	0c]	1r
.	[1E	.	[1g
=128	=128	=128	=128
0C]	2E]	1r	2g]
.	2E	.	2g
.	1E	[1c	1g
=129	=129	=129	=129
0r	2F	2c]	1a
.	4E	2c	.
.	4D	.	.
.	4E	1c	2g
.	4D	.	.
.	[2F	.	[2a
=130	=130	=130	=130
0r	2F]	1d	2a]
.	4E	.	4g
.	4D	.	4f
.	4E	1c	4g
.	4D	.	4f
.	[2F	.	[2a
=131	=131	=131	=131
0r	2F]	1d	2a]
.	4E	.	4g
.	4D	.	4f
.	2F	[1c	2a
.	4E	.	4g
.	4D	.	4f
=132	=132	=132	=132
0r	[0C	2c]	1e
.	.	4B	.
.	.	4A	.
.	.	[1c	1c
=133	=133	=133	=133
0r	0C]	1c]	1g
.	.	1G	2g
.	.	.	2g
=134	=134	=134	=134
0r	0r	1d	1a
.	.	2d	1a
.	.	2d	.
=135	=135	=135	=135
0r	1r	1e	2g
.	.	.	4c
.	.	.	4d
.	1C	1e	4e
.	.	.	4f
.	.	.	4g
.	.	.	4a
=136	=136	=136	=136
0r	1G	1d	2b
.	.	.	1cc
.	2G	1d	.
.	2G	.	2b
=137	=137	=137	=137
0r	1A	1.c	0cc
.	1A	.	.
.	.	4B	.
.	.	4A	.
=138	=138	=138	=138
1r	1G	0B	0r
1GG	1G	.	.
=139	=139	=139	=139
1D	0F	0r	0r
2D	.	.	.
2D	.	.	.
=140	=140	=140	=140
1E	2r	1r	0r
.	4C	.	.
.	4D	.	.
1E	4E	1G	.
.	4F	.	.
.	4G	.	.
.	4A	.	.
=141	=141	=141	=141
1D	2B	1d	0r
.	1c	.	.
1D	.	2d	.
.	2B	2d	.
=142	=142	=142	=142
0C	2c	1e	1r
.	4B	.	.
.	4A	.	.
.	2G	1e	1g
.	[2c	.	.
=143	=143	=143	=143
0GG	2c]	1d	1dd
.	4B	.	.
.	4A	.	.
.	1B	1d	2dd
.	.	.	2dd
=144	=144	=144	=144
2r	2c	1c	1ee
1C	4B	.	.
.	4A	.	.
.	2G	1C	1ee
4BB	[2A	.	.
4AA	.	.	.
=145	=145	=145	=145
2.BB	2A]	0D	1dd
.	4G#Xi	.	.
4AA	4F#Xi	.	.
1BB	1G#Xi	.	1dd
=146	=146	=146	=146
[0AA	[0A	[0E	[0cc
=147	=147	=147	=147
0AA]	0A_	0E]	0cc]
=148	=148	=148	=148
1r	0A]	0e	1r
[1A	.	.	[1cc
=149	=149	=149	=149
1A]	1r	0f	1cc]
1F	[1d	.	1a
=150	=150	=150	=150
1.G	1d]	1d	1.b
.	1B	[1e	.
2F	.	.	2a
=151	=151	=151	=151
1E	0c	2e]	1g
.	.	2d	.
[1F	.	1c	[1a
=152	=152	=152	=152
1F]	1A	0d	1a]
1D	[1B	.	1f
=153	=153	=153	=153
0E	1B]	1B	0g
.	1G	[1c	.
=154	=154	=154	=154
1C	0A	1c]	1e
[1D	.	1A	[1f
=155	=155	=155	=155
2D]	1F	0B	2f]
2C	.	.	2e
1BB	[1G	.	1d
=156	=156	=156	=156
0C	1G]	0G	0e
.	1E	.	.
=157	=157	=157	=157
00AAl;	00El;	00Al;	00cl;
=159	=159	=159	=159
0r	1r	0r	0e
.	[1E	.	.
=160	=160	=160	=160
0r	1E]	0r	1.g
.	[1G	.	.
.	.	.	4f
.	.	.	4e
=161	=161	=161	=161
0r	2G]	0r	1d
.	4F	.	.
.	4E	.	.
.	1D	.	1f
=162	=162	=162	=162
0r	1.A	0r	1f
.	.	.	[1e
.	2G	.	.
=163	=163	=163	=163
0r	1F	1r	2e]
.	.	.	4d
.	.	.	4c
.	1F	1A	2.d
.	.	.	4c
=164	=164	=164	=164
1AA	[0E	1A	[0e
1AA	.	[1c	.
=165	=165	=165	=165
1.C	0E]	2c]	0e]
.	.	4B	.
.	.	4A	.
.	.	2G	.
4BB	.	2c	.
4AA	.	.	.
=166	=166	=166	=166
2GG	0r	2B	0r
2C	.	1A	.
2BB	.	.	.
2BB	.	2G#Xi	.
=167	=167	=167	=167
0AA	0r	0A	1r
.	.	.	[1e
=168	=168	=168	=168
0r	0E	0r	1e]
.	.	.	[1g
=169	=169	=169	=169
0r	0G	0r	2g]
.	.	.	2f
.	.	.	[1e
=170	=170	=170	=170
0r	0F	1r	2e]
.	.	.	4d
.	.	.	4c
.	.	[1A	1d
=171	=171	=171	=171
0AA	[0E	1A]	[0e
.	.	[1c	.
=172	=172	=172	=172
0C	0E]	2c]	0e]
.	.	2B	.
.	.	[1A	.
=173	=173	=173	=173
0BB	0r	2A]	0r
.	.	4G#Xi	.
.	.	4F#Xi	.
.	.	1G#Xi	.
=174	=174	=174	=174
0AA	0E	0A	1r
.	.	.	[1e
=175	=175	=175	=175
0AA	1E	1r	1e]
.	1E	[1A	1e
=176	=176	=176	=176
1AA	0A	1A_	1e
1AA	.	1A]	[1a
=177	=177	=177	=177
0D	1A	1A	1a]
.	1A	1d	1a
=178	=178	=178	=178
1D	1.d	1d	1a
1D	.	[1d	[1dd
.	2c	.	.
=179	=179	=179	=179
1.G	2B	1d]	2dd]
.	2A	.	2cc
.	[1G	[1g	2b
2F	.	.	2a
=180	=180	=180	=180
2E	1G]	2g]	0g
2D	.	2f	.
[1C	[1e	2e	.
.	.	2d	.
=181	=181	=181	=181
1C]	1e]	1c	1r
1G	1d	1r	1b
=182	=182	=182	=182
1A	4c	2r	1cc
.	4B	.	.
.	4A	2c	.
.	4G	.	.
2G	2B	2d	2b
2F	2c	2A	[2a
=183	=183	=183	=183
1E	1G	2B	2a]
.	.	2c	1g
1D	1A	1d	.
.	.	.	2f#Xi
=184	=184	=184	=184
1r	0G	2.B	[0g
.	.	4c	.
1G	.	2d	.
.	.	[2e	.
=185	=185	=185	=185
2C	1r	2e]	0g]
1G	.	1d	.
.	1E	.	.
4F	.	[2c	.
4E	.	.	.
=186	=186	=186	=186
2D	1F	2c]	1r
2D	.	2B	.
2C	1G	1c	1e
2E	.	.	.
=187	=187	=187	=187
1D	1A	1d	1f
1GG	1G	1D	1g
=188	=188	=188	=188
0r	1.c	1r	1a
.	.	1E	1g
.	2B	.	.
=189	=189	=189	=189
1r	1A	1F	1.cc
1GG	1G	[1G	.
.	.	.	2b
=190	=190	=190	=190
1AA	1r	2G]	1a
.	.	2F	.
[1C	1G	[1E	1g
=191	=191	=191	=191
2C]	1A	1E]	1r
2BB	.	.	.
[1AA	[1c	[1e	1a
=192	=192	=192	=192
1AA]	2c]	2e]	1a
.	2B	2d	.
[1A	[1A	2c	[1cc
.	.	2B	.
=193	=193	=193	=193
2A]	1A]	[0A	2cc]
2G	.	.	2b
2F	[1d	.	1a
2E	.	.	.
=194	=194	=194	=194
1D	2d]	1A]	0dd
.	2c	.	.
1GG	1B	1G	.
=195	=195	=195	=195
1AA	1A	1.E	1cc
1E	1G	.	[1b
.	.	[2e	.
=196	=196	=196	=196
0F	1c	2e]	1b]
.	.	4d	.
.	.	4c	.
.	1A	1d	[1a
=197	=197	=197	=197
0E	0B	1e	1a]
.	.	[1E	1g#Xi
=198	=198	=198	=198
[0AAl	[0Al	1E]	[0al
.	.	[1F	.
=199	=199	=199	=199
0AA]	0A]	1F]	0a]
.	.	1El	.
!!LO:LB:i:g=z
=||	=||	=||	=||
*>C	*>C	*>C	*>C
*clefF4	*clefGv2	*clefGv2	*clefG2
*k[]	*k[]	*k[]	*k[]
*M2/1	*M2/1	*M2/1	*M2/1
*met(C|)	*met(C|)	*met(C|)	*met(C|)
!!section: Tertia pars: Miserere nostri
!!!OMD: Tertia pars: Miserere nostri
0r	0r	0r	1.e
.	.	.	2e
=200	=200	=200	=200
0r	0r	0r	1e
.	.	.	1e
=201	=201	=201	=201
0r	0r	0r	1f
.	.	.	1f
=202	=202	=202	=202
0r	0r	1.B	1.g
.	.	2B	4f
.	.	.	4e
=203	=203	=203	=203
0r	0r	1B	2.d
.	.	.	4c
.	.	1B	1d
=204	=204	=204	=204
0r	0r	1c	1c
.	.	1c	2r
.	.	.	2cc
=205	=205	=205	=205
0r	0r	1.d	2a
.	.	.	1b
.	.	4c	4a
.	.	4B	4g
=206	=206	=206	=206
0r	0r	2A	2f#Xi
.	.	2G	1g
.	.	1A	.
.	.	.	2f#Xi
=207	=207	=207	=207
0r	1.E	2G	1.g
.	.	2c	.
.	.	2B	.
.	2E	[2e	2cc
=208	=208	=208	=208
0r	1E	2e]	2b
.	.	4d	1a
.	.	4c	.
.	1E	1B	.
.	.	.	2g#Xi
=209	=209	=209	=209
0r	1F	1A	0a
.	1F	1c	.
=210	=210	=210	=210
0r	1.G	2B	0r
.	.	1e	.
.	4F	4d	.
.	4E	4c	.
=211	=211	=211	=211
0r	2D	2B	0r
.	2C	1c	.
.	1D	.	.
.	.	2B	.
=212	=212	=212	=212
1.AA	1C	[0c	0r
.	1F	.	.
2AA	.	.	.
=213	=213	=213	=213
1AA	1E	0c]	0r
1AA	1A	.	.
=214	=214	=214	=214
1C	1G	0r	0r
1C	1c	.	.
=215	=215	=215	=215
1.D	2A	0r	0r
.	1B	.	.
4C	4A	.	.
4BB	4G	.	.
=216	=216	=216	=216
2AA	2F#Xi	0r	0r
2GG	1G	.	.
1AA	.	.	.
.	2F#Xi	.	.
=217	=217	=217	=217
[0GG	[0G	1r	0r
.	.	[1B	.
=218	=218	=218	=218
0GG]	0G]	2B]	0r
.	.	2B	.
.	.	1B	.
=219	=219	=219	=219
1r	0d	1G	1r
[1G	.	[1g	[1b
=220	=220	=220	=220
1G]	1d	1g]	1b]
1G	[1e	1g	1b
=221	=221	=221	=221
0A	1e]	0e	0cc
.	[1c	.	.
=222	=222	=222	=222
0F	1c]	0f	0a
.	[1d	.	.
=223	=223	=223	=223
0G	1d]	0d	0b
.	1B	.	.
=224	=224	=224	=224
00E;	00B;	00e;	00g;
=226	=226	=226	=226
0r	0r	0r	0a
=227	=227	=227	=227
0r	0r	0r	0a
=228	=228	=228	=228
0r	0r	0r	1dd
.	.	.	2dd
.	.	.	2dd
=229	=229	=229	=229
0r	0r	0A	1.cc
.	.	.	4b
.	.	.	4a
=230	=230	=230	=230
0r	0r	0A	2dd
.	.	.	1cc
.	.	.	4b
.	.	.	4a
=231	=231	=231	=231
0r	0r	1d	2b
.	.	.	1a
.	.	2d	.
.	.	2d	4g
.	.	.	4f
=232	=232	=232	=232
0AA	0r	1.c	1e
.	.	.	[1e
.	.	4B	.
.	.	4A	.
=233	=233	=233	=233
0AA	0r	2d	2e]
.	.	1c	2e
.	.	.	1e
.	.	4B	.
.	.	4A	.
=234	=234	=234	=234
1D	0r	2B	0r
.	.	1A	.
2D	.	.	.
2D	.	4G	.
.	.	4F	.
=235	=235	=235	=235
1.C	0E	2E	0r
.	.	2C	.
.	.	1G	.
4BB	.	.	.
4AA	.	.	.
=236	=236	=236	=236
2GG	0E	0r	0r
2.C	.	.	.
4BB	.	.	.
4AA	.	.	.
4GG	.	.	.
=237	=237	=237	=237
0FF	1A	0r	0r
.	2A	.	.
.	2A	.	.
=238	=238	=238	=238
0C	1.G	0r	0r
.	4F	.	.
.	4E	.	.
=239	=239	=239	=239
0BB	2G	0r	0r
.	1F	.	.
.	4E	.	.
.	4D	.	.
=240	=240	=240	=240
0AA	1C	0r	0r
.	2r	.	.
.	[2C	.	.
=241	=241	=241	=241
0C	4C]	0r	0r
.	4D	.	.
.	4E	.	.
.	4F	.	.
.	2G	.	.
.	[2A	.	.
=242	=242	=242	=242
0BB	2A]	0r	1d
.	4G#Xi	.	.
.	4F#Xi	.	.
.	1G#Xi	.	1d
=243	=243	=243	=243
[0AA	0A	0r	1c
.	.	.	2r
.	.	.	[2c
=244	=244	=244	=244
0AA]	0c	1.e	4c]
.	.	.	4d
.	.	.	4e
.	.	.	4f
.	.	.	2g
.	.	2e	[2a
=245	=245	=245	=245
1E	0B	0e	2a]
.	.	.	4g#Xi
.	.	.	4f#Xi
1E	.	.	1g#Xi
=246	=246	=246	=246
1F	[0A	2r	[0a
.	.	2d	.
2r	.	2.f	.
2D	.	.	.
.	.	4e	.
=247	=247	=247	=247
2.F	0A_	4d	0a]
.	.	4c	.
.	.	1f	.
4E	.	.	.
4D	.	.	.
4C	.	.	.
[2F	.	4e	.
.	.	4d	.
=248	=248	=248	=248
2F]	0A]	2c	1r
4E	.	2d	.
4D	.	.	.
2C	.	[1A	1a
2D	.	.	.
=249	=249	=249	=249
0AA	1r	1A]	1.cc
.	1A	1r	.
.	.	.	2b
=250	=250	=250	=250
1r	1.c	1A	1.a
1AA	.	[1c	.
.	2B	.	2g
=251	=251	=251	=251
0C	1A	2c]	1f
.	.	2c	.
.	1G	1c	1e
=252	=252	=252	=252
1D	1F	2A	1d
.	.	1d	.
1E	1E	.	1r
.	.	2c	.
=253	=253	=253	=253
1F	1D	1d	1a
4F	1A	1c	4a
4E	.	.	4g
4D	.	.	4f
4C	.	.	4e
=254	=254	=254	=254
2D	4A	[0A	2f
.	4G	.	.
2C	4F	.	1e
.	4E	.	.
1D	1F	.	.
.	.	.	2d
=255	=255	=255	=255
0AA	0E	0A]	0e
=256	=256	=256	=256
1r	0r	0A	0r
[1AA	.	.	.
=257	=257	=257	=257
1AA]	1r	0A	0e
[1AA	[1E	.	.
=258	=258	=258	=258
1AA]	1E]	1.c	0e
[1C	[1E	.	.
.	.	2d	.
=259	=259	=259	=259
2C]	1E]	1.e	1.g
2D	.	.	.
[1E	[1G	.	.
.	.	2f	2a
=260	=260	=260	=260
2E]	2G]	0g	1.b
2F	2A	.	.
[1G	[1B	.	.
.	.	.	2cc
=261	=261	=261	=261
1G]	2B]	0g	0dd
.	2c	.	.
[1G	[1d	.	.
=262	=262	=262	=262
1G]	1d]	0G	0dd
[1GG	[1d	.	.
=263	=263	=263	=263
1GG]	1d]	1G	0d
1GG	[1D	[1G	.
=264	=264	=264	=264
1.GG	1D]	2G]	1d
.	.	2A	.
.	1D	2B	[1d
2AA	.	2c	.
=265	=265	=265	=265
2BB	1.D	1.d	2d]
2C	.	.	2e
[1D	.	.	2f
.	2E	2e	2g
=266	=266	=266	=266
2D]	2F	0f	1.a
2E	2G	.	.
[1F	[1A	.	.
.	.	.	2b
=267	=267	=267	=267
1F]	2A]	1.c	0cc
.	2B	.	.
[1C	[1c	.	.
.	.	2d	.
=268	=268	=268	=268
2C]	1c]	1.e	1.g
2D	.	.	.
[1E	[1G	.	.
.	.	2f	2a
=269	=269	=269	=269
2E]	2G]	1.g	1.b
2F	2A	.	.
[1G	[1B	.	.
.	.	4f	2cc
.	.	4e	.
=270	=270	=270	=270
2G]	2B]	1d	1.dd
4F	2c	.	.
4E	.	.	.
1D	[1d	[1f	.
.	.	.	4cc
.	.	.	4b
=271	=271	=271	=271
0F	2d]	2f]	2.a
.	4c	4e	.
.	4B	4d	4b
.	1A	1c	2cc
.	.	.	4b
.	.	.	4a
=272	=272	=272	=272
1E	1c	1e	2g
.	.	.	2cc
1D	1d	1f	2b
.	.	.	[2a
=273	=273	=273	=273
0E	0B	0e	2a]
.	.	.	4g#Xi
.	.	.	4f#Xi
.	.	.	2a
.	.	.	2g#Xi
=274	=274	=274	=274
0AA	0A	0e	0a
=275	=275	=275	=275
0r	0r	0r	0r
=276	=276	=276	=276
[0D	[0F	[0d	[0al
=277	=277	=277	=277
1D]	1F]	1d]	0a_
1AA	1E	1c	.
=278	=278	=278	=278
1.D	[0F	1.d	0a_
2C	.	2e	.
=279	=279	=279	=279
0D	0F]	0d	0a_
=280	=280	=280	=280
0AAl	0El	0cl	0a]
==	==	==	==
*-	*-	*-	*-
!!!RDF**kern: l=long note in original notation
!!!system-decoration: s1,s2,s3,s4
!!!RDF**kern: i = editorial accidental
!!!ENC: Chris Gage 04-30-2014
!!!END: 2020/10/21
!!!EED: Jesse Rodin
!!!EEV: 2021/04/14
!!attribution-level@Jos: 4a (the rest [double question mark])
!!!ONB: Translated from MusicXML and edited on 2021/04/14 by Craig Sapp
!!muse2ps: C^@{COA}?\n@{SCT}^i2I150v85,85,85,150c113
